files/img/userusage.svg

<svg width="130" height="130" fill="none" xmlns="http://www.w3.org/2000/svg">
  <path d="M42.0356 101.299c0-12.6826 10.2815-22.9641 22.9644-22.9641 12.6829 0 22.9644 10.2815 22.9644 22.9641m-9.8419-45.9285c0 7.2474-5.8753 13.1225-13.1225 13.1225-7.2474 0-13.1225-5.8751-13.1225-13.1225 0-7.2473 5.8751-13.1225 13.1225-13.1225 7.2472 0 13.1225 5.8752 13.1225 13.1225Z" stroke="#F6B17A" stroke-width="5" stroke-linecap="round" stroke-linejoin="round"/>
  <path d="M61.7551 29.1609a4.5036 4.5036 0 0 0 6.4897 0c12.3565-12.8384 25.3598-14.0099 35.0372-9.5864 9.961 4.5534 17.259 15.3837 17.259 28.2986 0 13.1942-5.399 23.3639-13.139 32.08-7.895 8.8896-17.8462 15.8957-26.9466 23.0699-3.1589 2.49-5.9762 4.675-8.692 6.262-2.717 1.588-4.9045 2.313-6.7635 2.313-1.8589 0-4.0464-.725-6.7634-2.313-2.7158-1.587-5.5332-3.772-8.6918-6.262-4.779-3.7673-9.6357-7.3592-14.5634-11.4146-1.9204-1.5804-4.7585-1.3048-6.339.6155-1.5805 1.9202-1.3049 4.7585.6155 6.3389 4.9853 4.1032 10.2515 8.0182 14.711 11.5332 3.0757 2.425 6.3775 5.01 9.7235 6.965 3.3451 1.955 7.1622 3.544 11.3076 3.544 4.1455 0 7.9626-1.589 11.3076-3.544 3.3463-1.955 6.6476-4.54 9.7237-6.965 8.566-6.753 19.5158-14.4904 28.1048-24.1624 8.744-9.8455 15.412-22.0556 15.412-38.0605 0-16.2846-9.215-30.4078-22.522-36.49-12.5979-5.7588-28.1433-4.0214-42.0261 8.3992-13.8827-12.4206-29.4282-14.158-42.0267-8.3992C9.667 17.4653.4519 31.5885.4519 47.8731c0 9.8323 2.5216 18.2872 6.5568 25.6655 1.1934 2.182 3.9298 2.9836 6.1119 1.7899 2.1822-1.1937 2.9836-3.9299 1.7901-6.112-3.3697-6.1611-5.452-13.1401-5.452-21.3434 0-12.9149 7.2976-23.7452 17.2589-28.2986 9.6775-4.4235 22.6807-3.252 35.0375 9.5864Z" fill="#F6B17A"/>
</svg>

<svg width="130" height="130" viewBox="0 0 130 130" fill="none" xmlns="http://www.w3.org/2000/svg">
<path d="M42.0356 101.299C42.0356 88.6164 52.3171 78.3349 65 78.3349C77.6829 78.3349 87.9644 88.6164 87.9644 101.299M78.1225 55.3705C78.1225 62.6179 72.2472 68.493 65 68.493C57.7526 68.493 51.8775 62.6179 51.8775 55.3705C51.8775 48.1232 57.7526 42.248 65 42.248C72.2472 42.248 78.1225 48.1232 78.1225 55.3705Z" stroke="#F6B17A" stroke-width="5" stroke-linecap="round" stroke-linejoin="round"/>
<path d="M61.7551 29.1609C62.6042 30.043 63.7756 30.5413 64.9999 30.5413C66.2243 30.5413 67.3957 30.043 68.2448 29.1609C80.6013 16.3225 93.6046 15.151 103.282 19.5745C113.243 24.1279 120.541 34.9582 120.541 47.8731C120.541 61.0673 115.142 71.237 107.402 79.9531C99.507 88.8427 89.5558 95.8488 80.4554 103.023C77.2965 105.513 74.4792 107.698 71.7634 109.285C69.0464 110.873 66.8589 111.598 64.9999 111.598C63.141 111.598 60.9535 110.873 58.2365 109.285C55.5207 107.698 52.7033 105.513 49.5447 103.023C44.7657 99.2557 39.909 95.6638 34.9813 91.6084C33.0609 90.028 30.2228 90.3036 28.6423 92.2239C27.0618 94.1441 27.3374 96.9824 29.2578 98.5628C34.2431 102.666 39.5093 106.581 43.9688 110.096C47.0445 112.521 50.3463 115.106 53.6923 117.061C57.0374 119.016 60.8545 120.605 64.9999 120.605C69.1454 120.605 72.9625 119.016 76.3075 117.061C79.6538 115.106 82.9551 112.521 86.0312 110.096C94.5972 103.343 105.547 95.6056 114.136 85.9336C122.88 76.0881 129.548 63.878 129.548 47.8731C129.548 31.5885 120.333 17.4653 107.026 11.3831C94.4281 5.62427 78.8827 7.36173 64.9999 19.7823C51.1172 7.36173 35.5717 5.62427 22.9732 11.3831C9.66702 17.4653 0.451904 31.5885 0.451904 47.8731C0.451904 57.7054 2.97348 66.1603 7.00872 73.5386C8.20211 75.7206 10.9385 76.5222 13.1206 75.3285C15.3028 74.1348 16.1042 71.3986 14.9107 69.2165C11.541 63.0554 9.45861 56.0764 9.45861 47.8731C9.45861 34.9582 16.7563 24.1279 26.7176 19.5745C36.3951 15.151 49.3983 16.3225 61.7551 29.1609Z" fill="#F6B17A"/>
</svg>
